/* XPM */
static char *result[] = {
/* columns rows colors chars-per-pixel */
"21 40 10 1 ",
"  c #21110D",
". c #503625",
"X c #755338",
"o c #9E2E46",
"O c #BC4952",
"+ c #9D7658",
"@ c #677598",
"# c #8F9AB0",
"$ c #B6BEC8",
"% c #38974E",
/* pixels */
"%    %%%%%%%%%%%     ",
" ++++           ++++ ",
" ++++           ++++ ",
" ++++XX+++++++XX++++ ",
" XXXX...........XXXX ",
" XXX@$$$$$$$$$$$@XXX ",
" XXX@$$$$$$$$$$$@XXX ",
" XXX$$$$$$$$$$$$$XXX ",
" @@#$$$$$$$$$$$$$#@@ ",
" @@OOOOOOOOOOOOOOO@@ ",
" @@OOOOOOOOOOOOOOO@@ ",
" OOOOOOOOOOOOOOOOOOO ",
" OOOOOOOOOOOOOOOOOOO ",
" OOOOOOOOOOOOOOOOOOO ",
" OOOOOOOOOOOOOOOOOOO ",
" OOOOOOOOOOOOOOOOOOO ",
" OOOOOOOOOOOOOOOOOOO ",
" OOOOOOOOOOOOOOOOOOO ",
" OOOOOOOOOOOOOOOOOOO ",
" OOOOOOOOOOOOOOOOOOO ",
" OOOOOOOOOOOOOOOOOOO ",
" OOOOOOOOOOOOOOOOOOO ",
" OOOOOOOOOOOOOOOOOOO ",
" OOOOOOOOOOOOOOOOOOO ",
" OOOOOOOOOOOOOOOOOOO ",
" OOOOOOOOOOOOOOOOOOO ",
" OOOOOOOOOOOOOOOOOOO ",
" OOOOOOOOOOOOOOOOOOO ",
" OOOOOOOOOOOOOOOOOOO ",
" OOOOOOOOOOOOOOOOOOO ",
" OOOOOOOOOOOOOOOOOOO ",
" OOoooooooooooooooOO ",
" ooooooooooooooooooo ",
" ooooooooooooooooooo ",
" ooooooooooooooooooo ",
" ................... ",
" XXXXXXXXXXXXXXXXXXX ",
"%  ....       ....  %",
"%  ....       ....  %",
"%  ....       ....  %"
};
