/* XPM */
static char *result[] = {
/* columns rows colors chars-per-pixel */
"36 40 11 1 ",
"  c #181425",
". c #2F2C3E",
"X c #412431",
"o c #6C3333",
"O c #575970",
"+ c #874A41",
"@ c #BD7152",
"# c #DC845F",
"$ c #A2A5AE",
"% c #B8BDCD",
"& c #38974E",
/* pixels */
"&&$$$$$oooo+++XX++++XXX++oooo$$$$$&&",
"&&$$$$$oooo+++XX++++XXX++oooo$$$$$&&",
"$$$$$++@@@@@@@oo@@@@ooo@@@@@@+++$$$$",
"$$$$$++@@@@@@@oo@@@@ooo@@@@@@+++$$$$",
"%%%%%@@#######@@####@@@######@@@%%%%",
"%%%%%@@#######@@####@@@######@@@%%%%",
"%%%%%@@#######@@####@@@######@@@%%%%",
"%%%%%@@#######@@####@@@######@@@%%%%",
"%%%%%@@#######@@####@@@######@@@%%%%",
"%%%%%@@#######@@####@@@######@@@%%%%",
"%%%%%@@#######@@####@@@######@@@%%%%",
"$$$$$++@@@@@@@++@@@@+++@@@@@@+++$$$$",
"$$$$$++@@@@@@@++@@@@+++@@@@@@+++$$$$",
"$$$$$++@@@@@@@++@@@@+++@@@@@@+++$$$$",
"$$$$$++@@@@@@@++@@@@+++@@@@@@+++$$$$",
"$$$$$++@@@@@@@++@@@@+++@@@@@@+++$$$$",
"OO$$$$$oo+++++oo++++ooo++++oo$$$$$OO",
"OO$$$$$oo+++++oo++++ooo++++oo$$$$$OO",
"OO$$$$$oo+++++oo++++ooo++++oo$$$$$OO",
"OO$$$$$oo+++++oo++++ooo++++oo$$$$$OO",
"OOOOOOOXXooooo$$$$$$$$$ooooXXOOOOOOO",
"OOOOOOOXXooooo$$$$$$$$$ooooXXOOOOOOO",
"..OOOOOOOOOOOOOO....OOOOOOOOOOOOOO..",
"..OOOOOOOOOOOOOO....OOOOOOOOOOOOOO..",
".....XXXXoooooOOOOOOOOOooooXXXXX....",
".....XXXXoooooOOOOOOOOOooooXXXXX....",
".....XXXXoooooOOOOOOOOOooooXXXXX....",
"  ...oooo+++++XXooooXXX++++ooooo..  ",
"  ...oooo+++++XXooooXXX++++ooooo..  ",
"  .....oo+++++oo++++ooo++++oo.....  ",
"  .....oo+++++oo++++ooo++++oo.....  ",
"&&   ...........................  &&",
"&&   ...........................  &&",
"&&                                &&",
"&&                                &&",
"&&                                &&",
"&&&&&                           &&&&",
"&&&&&                           &&&&",
"&&&&&&&                      &&&&&&&",
"&&&&&&&                      &&&&&&&"
};
