/* XPM */
static char *result[] = {
/* columns rows colors chars-per-pixel */
"25 40 10 1 ",
"  c black",
". c #35191F",
"X c #181425",
"o c #270731",
"O c #5E3D3D",
"+ c #4B185B",
"@ c #7E4848",
"# c #E19473",
"$ c #FBCCAC",
"% c #38974E",
/* pixels */
"%%%%%%%%%%%%%%%%%%%%%%%%%",
"%%%%%%%%%%%%%%%  %%%%%%%%",
"%%%%%%%%%%%%%%   %%%%%%%%",
"%%%%%%%%%%%%%%   %%%%%%%%",
"%%%%%%%%%%%%     %%%%%%%%",
"%%                %%%%%%%",
"%%                %%%%%%%",
"%%%%                %%%%%",
"%%%%                %%%%%",
"%%%%%                 %%%",
"%%%%%                 %%%",
"%%%%%                 %%%",
"%%%%%     ##          %%%",
"%%%%%     ##          %%%",
"%%%%%     ####        %%%",
"%%%%%    $$$$$$       %%%",
"%%%%%    $$$$$$       %%%",
"%%%%%    $$$$$$     %%%%%",
"%%%%%    $$$$$$     %%%%%",
"%%%%%@@  ......   @@%%%%%",
"%%%%@@@@@@OOooO  @@@@@%%%",
"%%%%@@@@@@OOooO  @@@@@%%%",
"%%%%O@@@@@ooooo@@@@@OO%%%",
"%%%%O@@@@@ooooo@@@@@OO%%%",
"%%%%OOO@@@+++++@@@OOOO%%%",
"%%OOOOOOO++++++++OOOOOO%%",
"%%OOOOOOO++++++++OOOOOO%%",
"%%..OOOOO++++++++OOOOO.%%",
"%###.OOOO +++++  OOO..###",
"%###.OOOO +++++  OOO..###",
"%$$$...OO        O....$$$",
"%$$$...OO        O....$$$",
"%%XXX..     XX    ..XXX%%",
"%XXXXXXXX   XX   XXXXXXXX",
"%XXXXXXXX   XX   XXXXXXXX",
"%XXXXXXXXX  XX XXXXXXXXXX",
"%XXXXXXXXX  XX XXXXXXXXXX",
"%%XXXXXXXXXXXXXXXXXXXXX%%",
"%%%%%XXXXXXXXXXXXXXX%%%%%",
"%%%%%XXXXXXXXXXXXXXX%%%%%"
};
