/* XPM */
static char *result[] = {
/* columns rows colors chars-per-pixel */
"40 33 7 1 ",
"  c #181425",
". c #524F5D",
"X c #505059",
"o c #73757C",
"O c #A4A5AA",
"+ c #ADAEB2",
"@ c #38974E",
/* pixels */
"@@@@@@@@@@@@@@@@ooooooooo@@@@@@@@@@@@@@@",
"@@@@@@@@@@oooooo++++++++ooooooo@@@@@@@@@",
"@@@@@@@@@@oooooo++++++++ooooooo@@@@@@@@@",
"@@@@@@@@@oo++++++++++ooooooooooo@@@@@@@@",
"@@@@@@@oooo+++++++++oooooooooooooo@@@@@@",
"@@@@@oo++++++++++++ooooooOOooooooo@@@@@@",
"@@@@o++++oo++++++++oo+++oOOoooo+..@@@@@@",
"@@@@o++++oo++++++++oo+++oOOoooo+..@@@@@@",
"@@@@o++++oo+++++++++++++ooooo+++..@@@@@@",
"@@oooo++++++++o++++++++++++++++...o@@@@@",
"@@...oo++o++++++ooo+++++++++++....o++@@@",
"@@ooo.ooooo+++++ooo++++++++++...oo+++@@@",
"@@ooo.ooooo+++++ooo++++++++++...oo+++@@@",
"@@++o.ooo.o+++oooooo++oooo.....o++++ooo@",
"@++++oXoo.oooooooooooooo...oooo++++oo..@",
" +++++o....ooo..ooo...oo.oo++++o+++.... ",
" .+++++oo.......oooo.....++oooooooo.+++ ",
" .+++++oo.......oooo.....++oooooooo.+++ ",
" ...++o++o..oo+++++oo.....ooooooooo.+++ ",
" ...oooooo..oo+++++++++++..++++o....ooo ",
"  ...oo+++++..++++++++++++++++.o....oXX ",
"  ...oo+++++..++++++++++++++++.o....oXX ",
"    ..o..+++..+++++++++++++++o.oooo..   ",
"@    ....ooo..++ooo++o+++ooooo..ooX     ",
"@@    ...oo....oooooooooooooooo.       @",
"@@@@     oo   ..ooo..ooooo.ooo       @@@",
"@@@@     oo   ..ooo..ooooo.ooo       @@@",
"@@@@@          ......ooo.....o      @@@@",
"@@@@@@          ...oo....oo       @@@@@@",
"@@@@@@@@@@@        oo....o      @@@@@@@@",
"@@@@@@@@@@@@@@                 @@@@@@@@@",
"@@@@@@@@@@@@@@                 @@@@@@@@@",
"@@@@@@@@@@@@@@@            @@@@@@@@@@@@@"
};
